TV/Source/AMC HD - Dark.svg

<svg height="364.935pt" viewBox="0 0 1223.826 364.93499" width="1223.826pt" xmlns="http://www.w3.org/2000/svg"><g transform="matrix(2.5130236 0 0 2.5130236 -167.14124 -86.052213)"><path d="m410.68992 68.720389h13.48017v30.609741h35.11985v-30.609741h13.40006l-.01 75.569621h-13.39006v-33.61001h-35.11985v33.61001h-13.48017z"/><path d="m485.39 144.29-.00013-75.569611h23.44354c6.04992 0 12.06663.51089 17.98659 1.999611 8.12 2.11 15.73 6.83 20.51 13.82 5.79 8.04 6.91 18.48 5.78 28.08-1.3 11-8.5 20.97-18.31 26.02-7.53 4.19-16.27 5.47-24.77 5.64-8.28996 0-16.48753.01-24.64013.01m13.37005-64.03v52.17c9.57-.14 19.76008.82 28.45008-4.03 7.72-3.94 12.25-12.78 11.66-21.33.72-8.59-2.78-17.84-10.4-22.38-5.59674-3.406982-11.9454-4.148771-18.3593-4.312579-3.80848-.097268-7.72584-.117421-11.35078-.117421z"/></g><path d="m-7.76933-.00005h800.00001v364.93504h-800.00001z"/><g fill="#fff" transform="matrix(.80000001 0 0 .80000001 -40.38252 -138.68468)"><path d="m266.87241 274.9391c-80.22149 0-106.48336 50.62832-106.48336 78.6323h55.347c1.88557-14.79907 17.34243-31.80804 53.01339-31.80804 36.31609 0 50.5276 22.82591 50.5276 51.6944h-26.98864c-90.16974 0-141.03084 24.98903-141.03084 80.45861 0 39.60995 39.00381 74.87824 89.69156 74.87824 31.9161 0 68.01013-15.19362 79.84983-24.85795l.81169 18.46591h51.94805v-136.36364c0-68.66472-27.41087-111.09983-106.68628-111.09983zm33.53287 141.74107h19.58198v13.6465c0 28.47049-27.90099 51.23783-67.77597 51.23783-24.34521 0-44.74432-8.90227-44.74432-26.02476 0-23.56203 18.58237-38.85957 92.93831-38.85957z"/><path d="m407.6496 522.38175v-241.06317h86.03896l47.0944 175.11969 45.43807-175.11969h87.66233v241.06317h-55.51368v-183.65668l-51.62917 183.65668h-52.70177l-51.19433-183.28602v183.28602z"/><path d="m877.84904 431.50166h55.65862c-8.24977 45.80357-49.72109 97.40259-114.94086 97.40259-82.1698 0-118.27457-71.16063-118.27457-126.39145 0-74.85557 47.25722-127.40609 117.83974-127.40609 62.00134 0 105.53178 45.0226 114.65097 97.11271h-54.64401c-6.3733-20.04331-25.96591-47.10692-60.00696-47.10692-38.35379 0-64.50023 38.20297-64.50023 76.24073 0 45.68469 31.12242 77.25534 64.35529 77.25534 30.37727 0 52.60196-23.55422 59.86201-47.10691z"/></g></svg>

<?xml version="1.0" encoding="UTF-8" standalone="no"?>
<svg
   xmlns:dc="http://purl.org/dc/elements/1.1/"
   xmlns:cc="http://creativecommons.org/ns#"
   xmlns:rdf="http://www.w3.org/1999/02/22-rdf-syntax-ns#"
   xmlns:svg="http://www.w3.org/2000/svg"
   xmlns="http://www.w3.org/2000/svg"
   xmlns:sodipodi="http://sodipodi.sourceforge.net/DTD/sodipodi-0.dtd"
   xmlns:inkscape="http://www.inkscape.org/namespaces/inkscape"
   width="1223.826pt"
   height="364.935pt"
   viewBox="0 0 1223.826 364.93499"
   version="1.1"
   id="svg18"
   sodipodi:docname="AMC HD - Dark.svg"
   inkscape:version="0.92.0 r15299">
  <metadata
     id="metadata24">
    <rdf:RDF>
      <cc:Work
         rdf:about="">
        <dc:format>image/svg+xml</dc:format>
        <dc:type
           rdf:resource="http://purl.org/dc/dcmitype/StillImage" />
        <dc:title></dc:title>
      </cc:Work>
    </rdf:RDF>
  </metadata>
  <defs
     id="defs22" />
  <sodipodi:namedview
     pagecolor="#ffffff"
     bordercolor="#666666"
     borderopacity="1"
     objecttolerance="10"
     gridtolerance="10"
     guidetolerance="10"
     inkscape:pageopacity="0"
     inkscape:pageshadow="2"
     inkscape:window-width="1920"
     inkscape:window-height="1017"
     id="namedview20"
     showgrid="false"
     fit-margin-top="0"
     fit-margin-left="0"
     fit-margin-right="0"
     fit-margin-bottom="0"
     inkscape:zoom="0.71"
     inkscape:cx="748.98519"
     inkscape:cy="132.33412"
     inkscape:window-x="-8"
     inkscape:window-y="-8"
     inkscape:window-maximized="1"
     inkscape:current-layer="svg18" />
  <g
     id="g4516"
     transform="matrix(2.5130236,0,0,2.5130236,-167.14124,-86.052213)"
     style="fill:#000000;fill-opacity:1">
    <path
       d="m 410.68992,68.720389 h 13.48017 V 99.33013 h 35.11985 V 68.720389 H 472.69 l -0.01,75.569621 H 459.28994 V 110.68 h -35.11985 v 33.61001 h -13.48017 z"
       id="path11"
       style="opacity:1;fill:#000000;fill-opacity:1"
       inkscape:connector-curvature="0"
       sodipodi:nodetypes="ccccccccccccc" />
    <path
       d="m 485.39,144.29 -1.3e-4,-75.569611 h 23.44354 c 6.04992,0 12.06663,0.51089 17.98659,1.999611 8.12,2.11 15.73,6.83 20.51,13.82 5.79,8.04 6.91,18.48 5.78,28.08 -1.3,11 -8.5,20.97 -18.31,26.02 -7.53,4.19 -16.27,5.47 -24.77,5.64 -8.28996,0 -16.48753,0.01 -24.64013,0.01 m 13.37005,-64.03 v 52.17 c 9.57,-0.14 19.76008,0.82 28.45008,-4.03 7.72,-3.94 12.25,-12.78 11.66,-21.33 0.72,-8.59 -2.78,-17.84 -10.4,-22.38 -5.59674,-3.406982 -11.9454,-4.148771 -18.3593,-4.312579 C 506.30222,80.280153 502.38486,80.26 498.75992,80.26 Z"
       id="path13"
       style="opacity:1;fill:#000000;fill-opacity:1"
       inkscape:connector-curvature="0"
       sodipodi:nodetypes="ccscccccccccccsc" />
  </g>
  <path
     style="fill:#000000;stroke:none;stroke-width:1.29870129"
     d="M -7.76933,-5e-5 H 792.23068 V 364.93499 H -7.76933 Z"
     id="path3013"
     inkscape:connector-curvature="0" />
  <g
     transform="matrix(0.80000001,0,0,0.80000001,-40.38252,-138.68468)"
     id="g829"
     style="fill:#ffffff;fill-opacity:1">
    <path
       id="path2998"
       d="m 266.87241,274.9391 c -80.22149,0 -106.48336,50.62832 -106.48336,78.6323 h 55.347 c 1.88557,-14.79907 17.34243,-31.80804 53.01339,-31.80804 36.31609,0 50.5276,22.82591 50.5276,51.6944 H 292.2884 c -90.16974,0 -141.03084,24.98903 -141.03084,80.45861 0,39.60995 39.00381,74.87824 89.69156,74.87824 31.9161,0 68.01013,-15.19362 79.84983,-24.85795 l 0.81169,18.46591 h 51.94805 V 386.03893 c 0,-68.66472 -27.41087,-111.09983 -106.68628,-111.09983 z m 33.53287,141.74107 h 19.58198 v 13.6465 c 0,28.47049 -27.90099,51.23783 -67.77597,51.23783 -24.34521,0 -44.74432,-8.90227 -44.74432,-26.02476 0,-23.56203 18.58237,-38.85957 92.93831,-38.85957 z"
       style="fill:#ffffff;fill-opacity:1;stroke:none;stroke-width:1.62337661"
       inkscape:connector-curvature="0" />
    <path
       sodipodi:nodetypes="cccccccccccccc"
       inkscape:connector-curvature="0"
       id="path3007"
       d="M 407.6496,522.38175 V 281.31858 h 86.03896 l 47.0944,175.11969 45.43807,-175.11969 h 87.66233 V 522.38175 H 618.36968 V 338.72507 L 566.74051,522.38175 H 514.03874 L 462.84441,339.09573 v 183.28602 z"
       style="fill:#ffffff;fill-opacity:1;stroke:none;stroke-width:1.62337661" />
    <path
       sodipodi:nodetypes="ccccccccccc"
       inkscape:connector-curvature="0"
       id="path3011"
       d="m 877.84904,431.50166 h 55.65862 c -8.24977,45.80357 -49.72109,97.40259 -114.94086,97.40259 -82.1698,0 -118.27457,-71.16063 -118.27457,-126.39145 0,-74.85557 47.25722,-127.40609 117.83974,-127.40609 62.00134,0 105.53178,45.0226 114.65097,97.11271 h -54.64401 c -6.3733,-20.04331 -25.96591,-47.10692 -60.00696,-47.10692 -38.35379,0 -64.50023,38.20297 -64.50023,76.24073 0,45.68469 31.12242,77.25534 64.35529,77.25534 30.37727,0 52.60196,-23.55422 59.86201,-47.10691 z"
       style="fill:#ffffff;fill-opacity:1;stroke:none;stroke-width:1.62337661" />
  </g>
</svg>
